X:1
T:Winnipeg, 77.77 D
T:Winnipeg, 77.77 D
T:L. B. Shook, 1883
T:Public Domain Courtesy of the Cyber Hymnal™
C:L. B. Shook, 1883
Z:Public Domain
Z:Courtesy of the Cyber Hymnal™
%%score ( 1 2 ) ( 3 4 )
L:1/8
Q:1/4=107
M:4/4
K:Eb
V:1 treble 
V:2 treble 
V:3 bass 
V:4 bass 
V:1
 [EB]2 | [EB]3 [EA] [EG]2 [DF]2 | [DF]4 E2 [EB]>[GB] | [Gc]3 [Gc] [FB]2 [E=A]2 | [DB]6 [GB]2 | %5
 [Ge]3 [GB] [FA]2 [EG]2 | (A3 B) !fermata![Ec]2 E>[DF] | [EG]3 [EB] [DA]2 [DF]2 | E6 E2 | %9
 [DF]3 [DF] [DB]2 [DA]2 | [FA]4 [EG]2 [EB]2 | [Ec]3 [Fd] [^Fe]2 [Fe]2 | [Ge]4 [Fd]2 [Ad]2 | %13
 [Ge]3 [GB] [FA]2 [EG]2 | (A3 B) !fermata![Ec]2 E>[DF] | [EG]3 [EB] [DA]2 [DF]2 | E6 |] %17
V:2
 x2 | x8 | x4 E2 x2 | x8 | x8 | x8 | E4 E3/2 x5/2 | x8 | E6 E2 | x8 | x8 | x8 | x8 | x8 | %14
 E4 E3/2 x5/2 | x8 | E6 |] %17
V:3
 [E,G,]2 | [E,G,]3 [A,,C] [B,,B,]2 [B,,B,]2 | (B,2 A,2) [E,G,]2 [E,G,]>[E,B,] | %3
 [C,E]3 [C,E] [F,D]2 [F,C]2 | B,6 [E,B,]2 | [E,B,]3 [E,B,] [D,B,]2 [E,B,]2 | %6
 B,4 !fermata![A,,A,]2 [G,,B,]>[A,,A,] | [B,,B,]3 [B,,G,] [B,,F,]2 [B,,A,]2 | [E,G,]6 [E,G,]2 | %9
 [B,,B,]3 [B,,B,] [B,,F,]2 [B,,B,]2 | B,4 [E,B,]2 [E,G,]2 | A,3 _A, [=A,C]2 [A,C]2 | %12
 B,4 B,2 [B,,B,]2 | [E,B,]3 [E,B,] [D,B,]2 [E,B,]2 | A,4 !fermata![A,,A,]2 [G,,B,]>[A,,B,] | %15
 [B,,B,]3 [B,,G,] [B,,B,]2 [B,,A,]2 | [E,G,]6 |] %17
V:4
 x2 | x8 | B,,4 x4 | x8 | B,6 x2 | x8 | (C,3 B,,) x4 | x8 | x8 | x8 | (B,,2 D,2) x4 | =A,3 =A, x4 | %12
 B,4 B,2 x2 | x8 | (C,3 B,,) x4 | x8 | x6 |] %17

